X:62
T:Bonfire, The
R:Strathspey
B:The Athole Collection
M:C
L:1/8
K:G Minor
f|d<G d>c d<GB<g|f>d c<f A<FF<f|d<G d>c d<GB<g|b>ga>^f ~g2g:|
f|d<g g2 d>g b<g|f>dc>f A>FF>f|d<g g2 d<g g>a|b>ga>^f ~g2 g>a|
b>a ggd>g|f>d c<f A>F F<f|d<G d>c d<GB<g|b>ga>^f ~g2g||
